file/british-council.svg

<svg clip-rule="evenodd" fill-rule="evenodd" stroke-linejoin="round" stroke-miterlimit="1.41421" viewBox="0 0 560 400" xmlns="http://www.w3.org/2000/svg"><g transform="matrix(1.20008441841 0 0 1.20008441841 99.99998522 148.39660221)"><g fill="#004280"><path d="m237.864 2.994c3.915 0 7.884.94 10.083 2.039l-.104 5.953c-3.144-1.542-6.342-2.539-10.143-2.539-3.412 0-6.338 1.054-6.338 3.919 0 7.439 18.69 4.464 18.69 16.751 0 6.782-5.736 11.074-14.062 11.074-5.671 0-9.586-1.598-12.287-3.242l2.585-5.073c2.211 1.38 5.741 2.866 9.924 2.866 3.751 0 7.223-1.438 7.223-4.74 0-7.778-18.519-4.357-18.519-16.757 0-6.616 5.287-10.251 12.948-10.251zm-20.117.331v36.323h-6.221v-36.323zm-45.215 0v36.323h-6.228v-36.323zm-57.567 36.323h-12.343v-36.323h13.336c2.868 0 4.738.44 6.286 1.155 3.691 1.766 5.347 5.127 5.347 8.212 0 3.477-1.438 5.842-4.357 7.61v.11c4.187.933 6.724 3.853 6.724 8.266 0 4.905-2.974 8.653-8.046 10.199-1.82.549-3.803.771-6.947.771zm146.929 0h-6.228v-36.323h6.228v14.882h17.64v-14.882h6.228v36.323h-6.228v-15.653h-17.64zm-145.162-15.653h-7.88v10.03h7.439c2.259 0 3.585-.276 4.632-.769 1.766-.879 2.647-2.431 2.647-4.519 0-1.879-.995-3.365-2.705-4.14-.879-.382-1.981-.602-4.133-.602zm-1.212-15.049h-6.668v9.482h6.284c1.982 0 3.196-.333 4.075-.832 1.435-.82 2.152-2.202 2.152-3.966 0-1.819-.829-3.304-2.423-4.08-.831-.382-1.822-.604-3.42-.604z" fill-rule="nonzero"/><path d="m116.374 46.028c3.967 0 6.997.777 10.089 2.148l-1.879 5.293c-1.764-.823-4.081-1.814-7.545-1.814-6.893 0-11.188 5.839-11.188 12.948 0 7.171 4.019 13.008 11.188 13.008 3.464 0 5.781-.987 7.545-1.822l1.879 5.299c-3.092 1.373-6.122 2.144-10.089 2.144-10.862 0-17.085-7.603-17.085-18.517 0-10.195 6.223-18.687 17.085-18.687zm136.275 0c3.969 0 6.999.777 10.083 2.148l-1.871 5.293c-1.766-.823-4.083-1.814-7.555-1.814-6.891 0-11.188 5.839-11.188 12.948 0 7.171 4.025 13.008 11.188 13.008 3.472 0 5.789-.987 7.555-1.822l1.871 5.299c-3.084 1.373-6.114 2.144-10.083 2.144-10.864 0-17.091-7.603-17.091-18.517 0-10.195 6.227-18.687 17.091-18.687zm-86.376 22.98v-22.648h6.228v22.873c0 6.057 3.254 8.322 8.432 8.322 5.293 0 8.437-2.265 8.437-8.322v-22.873h6.228v22.648c0 9.871-5.627 14.222-14.769 14.222-8.989 0-14.556-4.351-14.556-14.222zm-4.21-4.522c0 10.92-6.949 18.744-17.197 18.744-10.359 0-17.196-7.551-17.196-18.459 0-10.913 6.943-18.743 17.196-18.743 10.367 0 17.197 7.555 17.197 18.458zm45.294 18.193h-6.228v-36.315h6.727l16.857 24.745h.114c-.114-1.213-.164-3.144-.164-4.856v-19.889h6.223v36.315h-5.506l-18.077-26.448h-.11c.11 1.207.164 3.137.164 4.85zm-51.858-18.078c0-7.934-4.514-13.004-10.636-13.004-6.115 0-10.639 5.07-10.639 13.06 0 7.944 4.524 13.008 10.639 13.008 6.124 0 10.636-5.064 10.636-13.064z" fill-rule="nonzero"/><path d="m273.843 46.36v36.324h-6.218v-36.324zm11.919 30.696h14.218v5.628h-20.446v-36.324h6.228zm-145.323-37.408h-6.223v-36.315h12.285c9.365 0 12.952 4.96 12.952 10.469 0 4.85-2.809 8.102-6.724 9.307v.061c1.65.939 3.412 4.355 9.475 16.478h-7.109c-5.286-10.963-6.666-14.053-8.87-14.053h-5.786zm66.324-36.317v5.677h-11.631v30.64h-6.227v-30.64h-11.625v-5.677zm-59.874 5.621h-6.45v11.026h6.172c4.468 0 6.56-2.317 6.56-5.625 0-2.976-1.928-5.401-6.282-5.401z"/></g><path d="m41.545 65.228c0 11.475-9.301 20.772-20.773 20.772-11.471 0-20.772-9.297-20.772-20.772 0-11.474 9.301-20.771 20.772-20.771 11.472 0 20.773 9.296 20.773 20.771zm44.455 0c0 11.475-9.301 20.772-20.774 20.772-11.47 0-20.771-9.297-20.771-20.772 0-11.474 9.301-20.771 20.771-20.771 11.473 0 20.774 9.296 20.774 20.771zm-44.455-44.454c0 11.472-9.301 20.773-20.773 20.773-11.471 0-20.772-9.301-20.772-20.773 0-11.473 9.301-20.774 20.772-20.774 11.472.002 20.773 9.301 20.773 20.774zm44.455 0c0 11.472-9.301 20.773-20.774 20.773-11.47 0-20.771-9.301-20.771-20.773 0-11.473 9.301-20.774 20.771-20.774 11.473.002 20.774 9.301 20.774 20.774z" fill="#00a5e6" fill-rule="nonzero"/></g></svg>

<?xml version="1.0" encoding="UTF-8" standalone="no"?>
<!DOCTYPE svg PUBLIC "-//W3C//DTD SVG 1.1//EN" "http://www.w3.org/Graphics/SVG/1.1/DTD/svg11.dtd">
<svg width="100%" height="100%" viewBox="0 0 560 400" version="1.1" xmlns="http://www.w3.org/2000/svg" xmlns:xlink="http://www.w3.org/1999/xlink" xml:space="preserve" xmlns:serif="http://www.serif.com/" style="fill-rule:evenodd;clip-rule:evenodd;stroke-linejoin:round;stroke-miterlimit:1.41421;">
    <g transform="matrix(2.49377,0,0,2.49377,81.581,88.1147)">
        <g id="path48615" transform="matrix(0.481233,0,0,0.481233,7.386,24.173)">
            <path d="M237.864,2.994C241.779,2.994 245.748,3.934 247.947,5.033L247.843,10.986C244.699,9.444 241.501,8.447 237.7,8.447C234.288,8.447 231.362,9.501 231.362,12.366C231.362,19.805 250.052,16.83 250.052,29.117C250.052,35.899 244.316,40.191 235.99,40.191C230.319,40.191 226.404,38.593 223.703,36.949L226.288,31.876C228.499,33.256 232.029,34.742 236.212,34.742C239.963,34.742 243.435,33.304 243.435,30.002C243.435,22.224 224.916,25.645 224.916,13.245C224.916,6.629 230.203,2.994 237.864,2.994ZM217.747,3.325L217.747,39.648L211.526,39.648L211.526,3.325L217.747,3.325ZM172.532,3.325L172.532,39.648L166.304,39.648L166.304,3.325L172.532,3.325ZM114.965,39.648L102.622,39.648L102.622,3.325L115.958,3.325C118.826,3.325 120.696,3.765 122.244,4.48C125.935,6.246 127.591,9.607 127.591,12.692C127.591,16.169 126.153,18.534 123.234,20.302L123.234,20.412C127.421,21.345 129.958,24.265 129.958,28.678C129.958,33.583 126.984,37.331 121.912,38.877C120.092,39.426 118.109,39.648 114.965,39.648ZM261.894,39.648L255.666,39.648L255.666,3.325L261.894,3.325L261.894,18.207L279.534,18.207L279.534,3.325L285.762,3.325L285.762,39.648L279.534,39.648L279.534,23.995L261.894,23.995L261.894,39.648ZM116.732,23.995L108.852,23.995L108.852,34.025L116.291,34.025C118.55,34.025 119.876,33.749 120.923,33.256C122.689,32.377 123.57,30.825 123.57,28.737C123.57,26.858 122.575,25.372 120.865,24.597C119.986,24.215 118.884,23.995 116.732,23.995ZM115.52,8.946L108.852,8.946L108.852,18.428L115.136,18.428C117.118,18.428 118.332,18.095 119.211,17.596C120.646,16.776 121.363,15.394 121.363,13.63C121.363,11.811 120.534,10.326 118.94,9.55C118.109,9.168 117.118,8.946 115.52,8.946Z" style="fill:rgb(0,66,128);fill-rule:nonzero;"/>
        </g>
        <g transform="matrix(0.481233,0,0,0.481233,7.386,24.173)">
            <g id="g48627">
                <path id="path48629" d="M116.374,46.028C120.341,46.028 123.371,46.805 126.463,48.176L124.584,53.469C122.82,52.646 120.503,51.655 117.039,51.655C110.146,51.655 105.851,57.494 105.851,64.603C105.851,71.774 109.87,77.611 117.039,77.611C120.503,77.611 122.82,76.624 124.584,75.789L126.463,81.088C123.371,82.461 120.341,83.232 116.374,83.232C105.512,83.232 99.289,75.629 99.289,64.715C99.289,54.52 105.512,46.028 116.374,46.028ZM252.649,46.028C256.618,46.028 259.648,46.805 262.732,48.176L260.861,53.469C259.095,52.646 256.778,51.655 253.306,51.655C246.415,51.655 242.118,57.494 242.118,64.603C242.118,71.774 246.143,77.611 253.306,77.611C256.778,77.611 259.095,76.624 260.861,75.789L262.732,81.088C259.648,82.461 256.618,83.232 252.649,83.232C241.785,83.232 235.558,75.629 235.558,64.715C235.558,54.52 241.785,46.028 252.649,46.028ZM166.273,69.008L166.273,46.36L172.501,46.36L172.501,69.233C172.501,75.29 175.755,77.555 180.933,77.555C186.226,77.555 189.37,75.29 189.37,69.233L189.37,46.36L195.598,46.36L195.598,69.008C195.598,78.879 189.971,83.23 180.829,83.23C171.84,83.23 166.273,78.879 166.273,69.008ZM162.063,64.486C162.063,75.406 155.114,83.23 144.866,83.23C134.507,83.23 127.67,75.679 127.67,64.771C127.67,53.858 134.613,46.028 144.866,46.028C155.233,46.028 162.063,53.583 162.063,64.486ZM207.357,82.679L201.129,82.679L201.129,46.364L207.856,46.364L224.713,71.109L224.827,71.109C224.713,69.896 224.663,67.965 224.663,66.253L224.663,46.364L230.886,46.364L230.886,82.679L225.38,82.679L207.303,56.231L207.193,56.231C207.303,57.438 207.357,59.368 207.357,61.081L207.357,82.679ZM155.499,64.601C155.499,56.667 150.985,51.597 144.863,51.597C138.748,51.597 134.224,56.667 134.224,64.657C134.224,72.601 138.748,77.665 144.863,77.665C150.987,77.665 155.499,72.601 155.499,64.601Z" style="fill:rgb(0,66,128);fill-rule:nonzero;"/>
            </g>
        </g>
        <g id="rect48639" transform="matrix(0.481233,0,0,0.481233,7.386,24.173)">
            <path d="M273.843,46.36L273.843,82.684L267.625,82.684L267.625,46.36L273.843,46.36ZM285.762,77.056L299.98,77.056L299.98,82.684L279.534,82.684L279.534,46.36L285.762,46.36L285.762,77.056ZM140.439,39.648L134.216,39.648L134.216,3.333L146.501,3.333C155.866,3.333 159.453,8.293 159.453,13.802C159.453,18.652 156.644,21.904 152.729,23.109L152.729,23.17C154.379,24.109 156.141,27.525 162.204,39.648L155.095,39.648C149.809,28.685 148.429,25.595 146.225,25.595L140.439,25.595L140.439,39.648ZM206.763,3.331L206.763,9.008L195.132,9.008L195.132,39.648L188.905,39.648L188.905,9.008L177.28,9.008L177.28,3.331L206.763,3.331ZM146.889,8.952L140.439,8.952L140.439,19.978L146.611,19.978C151.079,19.978 153.171,17.661 153.171,14.353C153.171,11.377 151.243,8.952 146.889,8.952Z" style="fill:rgb(0,66,128);"/>
        </g>
        <g id="path48649" transform="matrix(0.481233,0,0,0.481233,7.386,24.173)">
            <path d="M41.545,65.228C41.545,76.703 32.244,86 20.772,86C9.301,86 0,76.703 0,65.228C0,53.754 9.301,44.457 20.772,44.457C32.244,44.457 41.545,53.753 41.545,65.228ZM86,65.228C86,76.703 76.699,86 65.226,86C53.756,86 44.455,76.703 44.455,65.228C44.455,53.754 53.756,44.457 65.226,44.457C76.699,44.457 86,53.753 86,65.228ZM41.545,20.774C41.545,32.246 32.244,41.547 20.772,41.547C9.301,41.547 0,32.246 0,20.774C0,9.301 9.301,0 20.772,0C32.244,0.002 41.545,9.301 41.545,20.774ZM86,20.774C86,32.246 76.699,41.547 65.226,41.547C53.756,41.547 44.455,32.246 44.455,20.774C44.455,9.301 53.756,0 65.226,0C76.699,0.002 86,9.301 86,20.774Z" style="fill:rgb(0,165,230);fill-rule:nonzero;"/>
        </g>
    </g>
</svg>
